X: 1
T: The Dear Irish Boy
C: J. O'Neill
Z: Michael Conners
M: 3/4
L: 1/8
Z: Contributed 20010418033356 by Michael Conners mconners@mconners.com
K: C Lydian
A>B|c3 (c2BA)|e (d3{ed}B)|A2A2 (~BA)|(A2G2)(AB)|c (B3{cB}A)|Be (e>d)|
(c2A2)B2|A4(AB)|c3c2(B{cB}A)|e (d3{(ed}B2))|A2 A2 (BA)|A2 G2 (AB)|
c3 d (e/2f/2g)| a4 (e>d)|(c3A) (B<e)|A4|| (eg)| (a2e2).e| (a2e2)(ed)|
(c2A2) (B{cB}A)|(A2G2)(ed)|(e2a2)(ab)|
e (a2{c'}b2)|a4 (ab)|(c'2 b2 a2)|(a2 e2 (ed))|(c2A2) (B>A)|(A2G2) (AB)|c
3 d2 (e/2f/2g)| a4 (e>d)|c A (B<e)|A4
